X:1
T:Big Rock Candy Mountain
M:4/4
L:1/4
K:C
 E3 F/2| G(3G3.99999962500005/11.9999985000002G3.99999962500005/11.9999985000002G3.99999962500005/11.9999985000002G3.99999962500005/11.9999985000002G3.99999962500005/11.9999985000002G3.99999962500005/11.9999985000002 F E/2F/2|\
 G G FE/2-F/2| G G D F| E C2 E/2F/2| G(3G3.99999962500005/11.9999985000002G3.99999962500005/11.9999985000002G3.99999962500005/11.9999985000002G3.99999962500005/11.9999985000002G3.99999962500005/11.9999985000002G3.99999962500005/11.9999985000002 F E/2F/2|\
 G G F E/2F/2| G G D F| E C2 E3/4 E/4|D/2-D/2 E F D| E F G E3/4 E/4|\
 D E F D| E G2 E/2F/2|(3G3.99999962500005/11.9999985000002G3.99999962500005/11.9999985000002G3.99999962500005/11.9999985000002G3.99999962500005/11.9999985000002G3.99999962500005/11.9999985000002G3.99999962500005/11.9999985000002 G FE/2-F/2|\
 G/2G/2 G F E/2F/2| G G D F| E C2 G3/4 F/4| E/2E/2 E/2E/2 E G/2G/2|\
 C/2C/2 C CG/2-G/2| A A c A| A G2 G/2G/2| F/2F/2 F F G/2F/2| E E E E/2F/2|\
 G G D F| E C2 z| z3 z/2||
